X: 1
T: Kerenski  [Dm]
T: Karapyet
O: Finland, Russia
M: 2/4
L: 1/16
K: Dm
[|\
"Dm"A2d2 d2d2 | "A7"^c4  A4 | e2e2 e2e2 | "Dm"f2e2 d4 |\
"Dm"A2d2 d2d2 | "A7"^c4  A4 | a2g2 f2e2 | "Dm"f2e2 d4 ||
"Dm"Adfa Adfa | "Gm"b4   g4 | "C7"b2b2 b2b2 | "F"a2g2 f4 |\
"Dm"A2a2 a2a2 | "Gm"g2f2 e4 | "A7"a2g2 f2e2 | "Dm"d4 d4 |]
